svgs/sharp-regular/chart-bar.svg

<svg xmlns="http://www.w3.org/2000/svg" viewBox="0 0 512 512"><!--! Font Awesome Pro 6.6.0 by @fontawesome - https://fontawesome.com License - https://fontawesome.com/license (Commercial License) Copyright 2024 Fonticons, Inc. --><path d="M48 32l0 24 0 376 440 0 24 0 0 48-24 0L24 480 0 480l0-24L0 56 0 32l48 0zm80 80l24 0 208 0 24 0 0 48-24 0-208 0-24 0 0-48zm24 96l144 0 24 0 0 48-24 0-144 0-24 0 0-48 24 0zm0 96l272 0 24 0 0 48-24 0-272 0-24 0 0-48 24 0z"/></svg>

<svg xmlns="http://www.w3.org/2000/svg" viewBox="0 0 512 512"><!--! Font Awesome Pro 6.4.2 by @fontawesome - https://fontawesome.com License - https://fontawesome.com/license (Commercial License) Copyright 2023 Fonticons, Inc. --><path d="M48 32V56 432H488h24v48H488 24 0V456 56 32H48zm80 80l24 0 208 0 24 0v48H360l-208 0H128l0-48zm24 96H296h24v48H296 152 128V208h24zm0 96H424h24v48H424 152 128V304h24z"/></svg>
